X: 3384
T: Benort Da Daeks O' Voe
R: reel
M: 4/4
K: Gmajor
D3 B AGED|{D}G2 BG dGBG|D3 B AGAB|1 dBAB dz d2:|2 dBAB d3 e||
|:dBgB AGE2|A A2 G AB g2|edgd edBe|1 dBAB d3 e:|2 dBAB dz d2||

